img/enterprises/brand2.svg

<svg width="210" height="79" viewBox="0 0 210 79" fill="none" xmlns="http://www.w3.org/2000/svg">
<path d="M22.9939 45.1287L34.6535 40.0754L41.3645 43.8651L42.7202 56.2984L34.4501 56.2322L35.6703 47.5882L34.2467 46.7904L27.2645 52.1096L22.9939 45.1287Z" fill="#81818B"/>
<path d="M42.1106 43.3329L52.4145 50.7127L56.4816 43.5989L48.2113 40.341V38.7453L56.4816 35.4209L52.4145 28.3733L42.1106 35.7534V43.3329Z" fill="#81818B"/>
<path d="M41.3645 35.1553L42.7202 22.7222L34.4501 22.8552L35.6703 31.4984L34.2467 32.2963L27.1967 26.9773L22.9939 33.892L34.6535 38.945L41.3645 35.1553Z" fill="#81818B"/>
<path d="M84.0724 38.0202V49.6684H88.5234V34.8239H82.0417V38.0202H84.0724Z" fill="#81818B"/>
<path d="M83.9333 32.7381C84.3412 33.1534 84.9628 33.361 85.7971 33.361C86.6323 33.361 87.244 33.1534 87.633 32.7381C88.0414 32.3045 88.2451 31.7627 88.2451 31.1128C88.2451 30.4445 88.0414 29.9028 87.633 29.4875C87.244 29.0541 86.6323 28.8373 85.7971 28.8373C84.9628 28.8373 84.3412 29.0541 83.9333 29.4875C83.5443 29.9028 83.3495 30.4445 83.3495 31.1128C83.3495 31.7627 83.5443 32.3045 83.9333 32.7381Z" fill="#81818B"/>
<path d="M68.5776 49.3431C69.8387 49.9029 71.3869 50.183 73.2228 50.183C74.948 50.183 76.4311 49.9208 77.6743 49.3973C78.917 48.8738 79.8719 48.1422 80.5392 47.203C81.2259 46.2459 81.5687 45.1354 81.5687 43.8712C81.5687 42.6433 81.2448 41.6049 80.5954 40.7561C79.9643 39.8893 79.0839 39.2122 77.9525 38.7246C76.8212 38.2189 75.5134 37.9029 74.0297 37.7766L72.4721 37.6411C71.5449 37.5687 70.8771 37.3251 70.4692 36.9096C70.0607 36.4943 69.857 36.0067 69.857 35.447C69.857 35.0134 69.9689 34.6163 70.1904 34.2551C70.4135 33.8758 70.7469 33.5779 71.1921 33.3611C71.6562 33.1445 72.2216 33.0361 72.8894 33.0361C73.594 33.0361 74.1783 33.1624 74.6419 33.4154C74.7437 33.4688 74.8409 33.5259 74.9317 33.5866L74.9537 33.6016C74.9879 33.6245 75.0215 33.6483 75.054 33.6723C75.3359 33.8819 75.5601 34.1303 75.7271 34.4176C75.9675 34.815 76.0888 35.2572 76.0888 35.7449H80.5392C80.5392 34.4446 80.2331 33.3159 79.6215 32.3589C79.0099 31.3837 78.1289 30.6343 76.9792 30.1104C75.8473 29.5687 74.4844 29.2978 72.8894 29.2978C71.3685 29.2978 70.0518 29.5508 68.9388 30.0564C67.8263 30.544 66.9548 31.2483 66.3243 32.1691C65.7116 33.0902 65.4056 34.1829 65.4056 35.447C65.4056 37.1986 66.0088 38.6071 67.2142 39.6727C68.4196 40.7382 70.0334 41.3522 72.0547 41.5146L73.5851 41.6501C74.8272 41.7585 75.7271 42.0023 76.2836 42.3814C76.8395 42.7426 77.1178 43.2392 77.1178 43.8712C77.1178 44.1617 77.069 44.4342 76.9713 44.6887C76.8989 44.8777 76.7991 45.0567 76.6731 45.2258C76.3754 45.6048 75.9402 45.9028 75.3653 46.1198C74.7905 46.3363 74.0765 46.4446 73.2228 46.4446C72.2773 46.4446 71.5076 46.3184 70.9144 46.0652C70.3206 45.7945 69.8759 45.4423 69.5783 45.0092C69.3005 44.5755 69.1619 44.1062 69.1619 43.6004H64.7383C64.7383 44.8826 65.0627 46.0205 65.7116 47.0133C66.3611 47.9887 67.316 48.7655 68.5776 49.3431Z" fill="#81818B"/>
<path d="M98.4548 49.8577C96.915 49.8577 95.6729 49.6774 94.7268 49.3158C93.7808 48.9369 93.0856 48.3136 92.6404 47.4469C92.2141 46.5618 92.0005 45.3703 92.0005 43.8712V37.9931H89.6915V34.8239H92.0005V30.8149H96.1454V34.8239H100.597V37.9931H96.1454V44.034C96.1454 44.7382 96.3312 45.2799 96.7019 45.6589C97.0914 46.0204 97.6385 46.2008 98.3435 46.2008H100.597V49.8577H98.4548Z" fill="#81818B"/>
<path fill-rule="evenodd" clip-rule="evenodd" d="M105.956 49.5329C106.957 49.966 108.107 50.183 109.405 50.183C110.685 50.183 111.817 49.966 112.799 49.5329C113.782 49.0993 114.599 48.4944 115.247 47.7181C115.896 46.9413 116.333 46.0562 116.555 45.0633H112.465C112.28 45.5148 111.928 45.8938 111.409 46.2008C110.889 46.5077 110.221 46.6617 109.405 46.6617C108.9 46.6617 108.448 46.603 108.05 46.4867C107.747 46.3981 107.476 46.2759 107.235 46.1198C106.679 45.7587 106.271 45.2527 106.011 44.6028C105.939 44.4176 105.878 44.2239 105.826 44.0222C105.773 43.8178 105.73 43.6052 105.698 43.3838H116.833V41.921C116.833 40.5666 116.536 39.3205 115.943 38.1829C115.349 37.027 114.487 36.097 113.356 35.3927C112.243 34.6703 110.871 34.3091 109.238 34.3091C107.996 34.3091 106.883 34.526 105.9 34.9594C104.936 35.3746 104.129 35.9434 103.48 36.6658C102.831 37.3882 102.33 38.21 101.977 39.131C101.644 40.0337 101.477 40.9818 101.477 41.9751V42.5168C101.477 43.4741 101.644 44.4131 101.977 45.3341C102.33 46.237 102.831 47.0585 103.48 47.799C104.147 48.5217 104.972 49.0993 105.956 49.5329ZM105.775 40.7053C105.787 40.6479 105.8 40.5914 105.814 40.5359C105.853 40.3827 105.897 40.2359 105.948 40.0957C105.976 40.0158 106.007 39.938 106.039 39.8623C106.317 39.1941 106.726 38.6885 107.263 38.3454C107.464 38.2171 107.682 38.1129 107.916 38.0327C108.31 37.898 108.751 37.8307 109.238 37.8307C109.999 37.8307 110.629 38.0023 111.13 38.3454C111.649 38.6704 112.039 39.1489 112.299 39.781C112.32 39.832 112.339 39.8839 112.359 39.9365C112.389 40.0202 112.418 40.1061 112.444 40.1942C112.484 40.3253 112.518 40.461 112.548 40.6013C112.57 40.7046 112.589 40.8104 112.606 40.9188H105.732C105.745 40.8464 105.759 40.7753 105.775 40.7053Z" fill="#81818B"/>
<path d="M118.67 49.6684V34.8239H122.203V38.5626C122.251 38.3403 122.306 38.127 122.366 37.9225C122.419 37.7501 122.475 37.584 122.537 37.4243C122.926 36.413 123.51 35.6547 124.289 35.1489C125.068 34.6252 126.023 34.3635 127.155 34.3635H127.349C128.5 34.3635 129.454 34.6252 130.215 35.1489C130.994 35.6547 131.578 36.413 131.967 37.4243L131.998 37.5007L132.024 37.5705C132.042 37.5212 132.06 37.4725 132.078 37.4243C132.486 36.413 133.08 35.6547 133.859 35.1489C134.638 34.6252 135.593 34.3635 136.725 34.3635H136.919C138.069 34.3635 139.033 34.6252 139.812 35.1489C140.61 35.6547 141.213 36.413 141.62 37.4243C142.028 38.4357 142.233 39.6998 142.233 41.2167V49.6684H137.782V40.9728C137.782 40.1602 137.559 39.5011 137.114 38.9955C136.687 38.4898 136.075 38.237 135.278 38.237C134.48 38.237 133.85 38.4989 133.386 39.0226C132.923 39.5281 132.691 40.2053 132.691 41.0542V49.6684H128.212V40.9728C128.212 40.1602 127.989 39.5011 127.544 38.9955C127.118 38.4898 126.514 38.237 125.736 38.237C124.92 38.237 124.28 38.4989 123.817 39.0226C123.353 39.5281 123.121 40.2053 123.121 41.0542V49.6684H118.67Z" fill="#81818B"/>
<path fill-rule="evenodd" clip-rule="evenodd" d="M154.123 46.8079V49.6684H157.655V40.5665C157.655 39.194 157.377 38.0745 156.821 37.2075C156.264 36.3226 155.449 35.6636 154.373 35.2302C153.316 34.7968 152.008 34.58 150.45 34.58C150.113 34.58 149.76 34.5835 149.393 34.5907C149.176 34.5951 148.953 34.6005 148.726 34.6071C148.114 34.6252 147.52 34.6523 146.945 34.6884L146.506 34.7172C146.28 34.7325 146.069 34.7475 145.869 34.7628C145.72 34.7741 145.577 34.7855 145.443 34.7968V38.4538C146.018 38.4176 146.658 38.3814 147.363 38.3454C147.56 38.3353 147.755 38.3259 147.949 38.3172C148.229 38.3046 148.505 38.2937 148.779 38.2841C148.995 38.2764 149.209 38.2697 149.421 38.264C150.089 38.2459 150.627 38.237 151.035 38.237C151.85 38.237 152.444 38.4265 152.815 38.8058C153.186 39.1851 153.371 39.7539 153.371 40.5125V40.5665H150.617C149.264 40.5665 148.067 40.7382 147.028 41.0813C145.99 41.4063 145.183 41.9209 144.609 42.6252C144.033 43.3116 143.746 44.1964 143.746 45.2799C143.746 46.2732 143.978 47.131 144.441 47.8536C144.905 48.5574 145.545 49.0993 146.361 49.4783C147.196 49.8577 148.16 50.0474 149.254 50.0474C150.311 50.0474 151.202 49.8577 151.925 49.4783C152.667 49.0993 153.242 48.5574 153.65 47.8536C153.722 47.7346 153.788 47.6115 153.851 47.4836C153.939 47.3028 154.018 47.1126 154.087 46.9131L154.123 46.8079ZM153.371 44.1694V42.9774H150.589C149.81 42.9774 149.208 43.167 148.781 43.5463C148.373 43.9075 148.169 44.4041 148.169 45.0361C148.169 45.3336 148.22 45.6039 148.321 45.8477C148.424 46.092 148.577 46.309 148.781 46.4987C149.208 46.8603 149.81 47.0406 150.589 47.0406C150.737 47.0406 150.881 47.0334 151.019 47.0196C151.132 47.0079 151.243 46.9914 151.349 46.9703C151.552 46.9301 151.745 46.8719 151.925 46.7967C152.333 46.6164 152.667 46.3184 152.926 45.9027C153.186 45.4875 153.335 44.9094 153.371 44.1694Z" fill="#81818B"/>
<path d="M160.319 49.6684V34.8239H163.852V39.7235C164.022 38.3248 164.448 37.197 165.132 36.3408C166.06 35.2032 167.394 34.6343 169.138 34.6343H169.723V38.3724H168.61C167.386 38.3724 166.44 38.6974 165.772 39.3475C165.104 39.9796 164.77 40.9007 164.77 42.1104V49.6684H160.319Z" fill="#81818B"/>
<path d="M175.367 42.7336H176.841L181.654 49.6684H186.661L180.559 41.1517L185.576 34.8239H180.903L175.367 41.8821V29.8939H170.916V49.6684H175.367V42.7336Z" fill="#81818B"/>
</svg>

<svg xmlns="http://www.w3.org/2000/svg" width="210" height="79" fill="none"><path fill="#81818B" d="m22.994 45.129 11.66-5.054 6.71 3.79 1.356 12.433-8.27-.066 1.22-8.644-1.423-.798-6.982 5.32-4.271-6.981ZM42.11 43.333l10.304 7.38 4.068-7.114-8.27-3.258v-1.596l8.27-3.324-4.068-7.048-10.303 7.38v7.58ZM41.364 35.155l1.356-12.433-8.27.133 1.22 8.643-1.423.798-7.05-5.319-4.203 6.915 11.66 5.053 6.71-3.79ZM84.072 38.02v11.648h4.451V34.824h-6.481v3.196h2.03ZM83.933 32.738c.408.415 1.03.623 1.864.623.835 0 1.447-.208 1.836-.623.408-.434.612-.975.612-1.625 0-.668-.204-1.21-.612-1.625-.389-.434-1-.65-1.836-.65-.834 0-1.456.216-1.864.65-.389.415-.584.957-.584 1.625 0 .65.195 1.191.584 1.625ZM68.578 49.343c1.26.56 2.809.84 4.645.84 1.725 0 3.208-.262 4.451-.786 1.243-.523 2.198-1.255 2.865-2.194.687-.957 1.03-2.068 1.03-3.332 0-1.228-.324-2.266-.974-3.115-.63-.867-1.511-1.544-2.642-2.031-1.132-.506-2.44-.822-3.923-.948l-1.558-.136c-.927-.072-1.595-.316-2.003-.731-.408-.416-.612-.903-.612-1.463 0-.434.112-.83.333-1.192.224-.38.557-.677 1.002-.894.464-.216 1.03-.325 1.697-.325.705 0 1.29.126 1.753.38.102.053.199.11.29.17l.022.016a2.473 2.473 0 0 1 .773.816c.24.397.362.84.362 1.327h4.45c0-1.3-.306-2.43-.918-3.386-.611-.975-1.492-1.725-2.642-2.249-1.132-.541-2.495-.812-4.09-.812-1.52 0-2.837.253-3.95.758-1.113.488-1.984 1.192-2.615 2.113-.612.921-.918 2.014-.918 3.278 0 1.752.603 3.16 1.808 4.226 1.206 1.065 2.82 1.68 4.84 1.842l1.531.135c1.242.108 2.142.352 2.699.731.555.362.834.858.834 1.49 0 .29-.049.563-.147.818a2.236 2.236 0 0 1-.298.537c-.298.379-.733.677-1.308.894-.575.216-1.288.325-2.142.325-.946 0-1.715-.127-2.309-.38-.593-.27-1.038-.623-1.336-1.056a2.562 2.562 0 0 1-.416-1.409h-4.424c0 1.283.325 2.42.974 3.413.65.976 1.604 1.753 2.866 2.33ZM98.455 49.858c-1.54 0-2.782-.18-3.728-.542-.946-.38-1.641-1.002-2.087-1.87-.426-.884-.64-2.076-.64-3.575v-5.878h-2.308v-3.17H92v-4.008h4.144v4.009h4.452v3.17h-4.452v6.04c0 .704.186 1.246.557 1.625.39.361.936.542 1.642.542h2.253v3.657h-2.142Z"/><path fill="#81818B" fill-rule="evenodd" d="M105.956 49.533c1.001.433 2.151.65 3.449.65 1.28 0 2.412-.217 3.394-.65.983-.434 1.8-1.039 2.448-1.815a6.19 6.19 0 0 0 1.308-2.655h-4.09c-.185.452-.537.83-1.056 1.138-.52.307-1.188.46-2.004.46-.505 0-.957-.058-1.355-.174a3.075 3.075 0 0 1-.815-.367 3.153 3.153 0 0 1-1.224-1.517 5.908 5.908 0 0 1-.313-1.219h11.135V41.92c0-1.354-.297-2.6-.89-3.738a7.017 7.017 0 0 0-2.587-2.79c-1.113-.723-2.485-1.084-4.118-1.084-1.242 0-2.355.217-3.338.65-.964.416-1.771.984-2.42 1.707a7.87 7.87 0 0 0-1.503 2.465c-.333.903-.5 1.85-.5 2.844v.542c0 .957.167 1.896.5 2.817a8.3 8.3 0 0 0 1.503 2.465c.667.723 1.492 1.3 2.476 1.734Zm-.181-8.828a4.625 4.625 0 0 1 .264-.843c.278-.668.687-1.173 1.224-1.517.201-.128.419-.232.653-.312a4.071 4.071 0 0 1 1.322-.202c.761 0 1.391.171 1.892.514.519.325.909.804 1.169 1.436.021.051.04.103.06.156a4.742 4.742 0 0 1 .189.664c.022.104.041.21.058.318h-6.874a4.63 4.63 0 0 1 .043-.214Z" clip-rule="evenodd"/><path fill="#81818B" d="M118.67 49.668V34.824h3.533v3.739a7.32 7.32 0 0 1 .334-1.138c.389-1.012.973-1.77 1.752-2.276.779-.524 1.734-.785 2.866-.785h.194c1.151 0 2.105.261 2.866.785.779.506 1.363 1.264 1.752 2.275l.031.077.026.07.054-.147c.408-1.011 1.002-1.77 1.781-2.275.779-.524 1.734-.785 2.866-.785h.194c1.15 0 2.114.261 2.893.785.798.506 1.401 1.264 1.808 2.275.408 1.012.613 2.276.613 3.793v8.451h-4.451v-8.695c0-.813-.223-1.472-.668-1.977-.427-.506-1.039-.759-1.836-.759-.798 0-1.428.262-1.892.786-.463.505-.695 1.182-.695 2.031v8.614h-4.479v-8.695c0-.813-.223-1.472-.668-1.977-.426-.506-1.03-.759-1.808-.759-.816 0-1.456.262-1.919.786-.464.505-.696 1.182-.696 2.031v8.614h-4.451Z"/><path fill="#81818B" fill-rule="evenodd" d="M154.123 46.808v2.86h3.532v-9.102c0-1.372-.278-2.492-.834-3.358-.557-.885-1.372-1.544-2.448-1.978-1.057-.433-2.365-.65-3.923-.65a53.987 53.987 0 0 0-1.724.027 53.86 53.86 0 0 0-1.781.081l-.439.03a73.162 73.162 0 0 0-1.063.079v3.657a163.342 163.342 0 0 1 2.506-.137 83.375 83.375 0 0 1 3.086-.08c.815 0 1.409.19 1.78.569.371.38.556.948.556 1.707v.053h-2.754c-1.353 0-2.55.172-3.589.515-1.038.325-1.845.84-2.419 1.544-.576.687-.863 1.571-.863 2.655 0 .993.232 1.851.695 2.574.464.703 1.104 1.245 1.92 1.624.835.38 1.799.57 2.893.57 1.057 0 1.948-.19 2.671-.57a4.109 4.109 0 0 0 1.725-1.624 4.864 4.864 0 0 0 .437-.94l.036-.106Zm-.752-2.639v-1.192h-2.782c-.779 0-1.381.19-1.808.57-.408.36-.612.857-.612 1.49 0 .297.051.567.152.81.103.245.256.462.46.652.427.361 1.029.542 1.808.542.148 0 .292-.008.43-.021.113-.012.224-.029.33-.05.203-.04.396-.098.576-.173.408-.18.742-.479 1.001-.894.26-.416.409-.994.445-1.734Z" clip-rule="evenodd"/><path fill="#81818B" d="M160.319 49.668V34.824h3.533v4.9c.17-1.4.596-2.527 1.28-3.383.928-1.138 2.262-1.707 4.006-1.707h.585v3.738h-1.113c-1.224 0-2.17.325-2.838.975-.668.633-1.002 1.554-1.002 2.763v7.558h-4.451ZM175.367 42.734h1.474l4.813 6.934h5.007l-6.102-8.516 5.017-6.328h-4.673l-5.536 7.058V29.894h-4.451v19.774h4.451v-6.934Z"/></svg>
